X:157
T:Leg of the Duck, The
T:Leis Lacha
T:Pride of the West
R:jig
Z:id:hn-jig-157
M:6/8
K:G
DGG GAG|FEF Ddc|~B3 GBd|cAG FEF|DGG GAG|FEF DBc|ded cAF|AGF G3:|
|:dgg def|dgg cBc|dgg def|GFG ABc|def ~g3|agf g2e|fed cAF|AGF G3:|
W:1. I gave it to Kitty because she was pretty,
W:   The leg of the duck, the leg of the duck.
W:   I gave it to Molly because she was jolly,
W:   The leg of the duck, the leg of the duck.
W:
W:2. I gave it to Nelly to stick in her belly
W:   The leg of the duck, the leg of the duck.
W:   She has it, she's got it, wherever she put it,
W:   The leg of the duck, the leg of the duck.
W:
W:

